src/lib/assets/github_logo_black.svg

<svg width="87" height="85" viewBox="0 0 87 85" fill="none" xmlns="http://www.w3.org/2000/svg">
<path d="M43.5 0C19.4808 0 0 19.4771 0 43.5C0 62.7197 12.4627 79.025 29.7504 84.7779C31.9217 85.1802 32.625 83.8317 32.625 82.6862V74.588C20.5247 77.2197 18.0054 69.455 18.0054 69.455C16.0261 64.4271 13.1733 63.0895 13.1733 63.0895C9.22563 60.3889 13.4741 60.4469 13.4741 60.4469C17.8423 60.7514 20.1405 64.931 20.1405 64.931C24.0193 71.5792 30.3159 69.658 32.799 68.5451C33.1869 65.7357 34.3143 63.8145 35.5613 62.7306C25.9006 61.625 15.7434 57.8949 15.7434 41.2307C15.7434 36.4784 17.4435 32.5996 20.2239 29.5546C19.7744 28.4562 18.2845 24.0301 20.648 18.0416C20.648 18.0416 24.302 16.8744 32.6141 22.5004C36.0832 21.5361 39.8025 21.054 43.5 21.0359C47.1975 21.054 50.9204 21.5361 54.3967 22.5004C62.7016 16.8744 66.3484 18.0416 66.3484 18.0416C68.7155 24.0337 67.2256 28.4599 66.7761 29.5546C69.5674 32.5996 71.253 36.482 71.253 41.2307C71.253 57.9384 61.0776 61.6177 51.3916 62.6944C52.9504 64.0429 54.375 66.6891 54.375 70.7491V82.6862C54.375 83.8426 55.071 85.202 57.2786 84.7742C74.5517 79.0141 87 62.7125 87 43.5C87 19.4771 67.5229 0 43.5 0Z" fill="black"/>
</svg>

<svg xmlns="http://www.w3.org/2000/svg" width="87" height="85" fill="none"><path fill="#000" d="M43.5 0C19.48 0 0 19.477 0 43.5c0 19.22 12.463 35.525 29.75 41.278 2.172.402 2.875-.946 2.875-2.092v-8.098c-12.1 2.632-14.62-5.133-14.62-5.133-1.979-5.028-4.832-6.365-4.832-6.365-3.947-2.701.301-2.643.301-2.643 4.368.304 6.666 4.484 6.666 4.484 3.88 6.648 10.176 4.727 12.659 3.614.388-2.81 1.515-4.73 2.762-5.814-9.66-1.106-19.818-4.836-19.818-21.5 0-4.753 1.7-8.631 4.48-11.676-.449-1.099-1.938-5.525.425-11.513 0 0 3.654-1.168 11.966 4.458 3.47-.964 7.189-1.446 10.886-1.464 3.697.018 7.42.5 10.897 1.464 8.305-5.626 11.951-4.458 11.951-4.458 2.368 5.992.878 10.418.428 11.513 2.791 3.045 4.477 6.927 4.477 11.676 0 16.707-10.175 20.387-19.861 21.463 1.558 1.349 2.983 3.995 2.983 8.055v11.937c0 1.157.696 2.516 2.904 2.088C74.552 79.014 87 62.712 87 43.5 87 19.477 67.523 0 43.5 0Z"/></svg>
